X: 25027
T: Maid's Lake, The
R: reel
M: 4/4
K: Dminor
A2dA eAdA|AAdA eAdc|E2cE dEcE|EEcE dEcE|
A2dA eAdA|AAdA eAdA|[Ec]3=B cded|cAGE d3a:|
|:ddad bdad|bdaa ageg|c2gc acgc|ccgc acec|
d2ad bdad|bdaa ageg|[fA]3e fgag|1 faea d3a:|2 faea d3c||

